X: 19589
T: Jamesy Gannon's
R: barndance
M: 4/4
K: Gmajor
L: 1/8
K: Dmaj
|:AG|F2 F2 F2 EF|G2G2 G4|AdcB AGFE|DCDE F2 DE|
F2 F2 F2 EF|G2 G2 G4|AdcB AGFE|D2 dd d2:|
|:de|f2 f2 f2 ed|cBcd e3 f|g2 g2 g2 fe|dcde f2 de|
f2 f2 f2 ed|cBcd e2 ef|g2 g2 g2 fe|d2 (3cde d2:|

